X: 05071
T: Scottish Ramble
O: Caledonian Country Dances, 1754
R: strathspey
B: RSCDS 5-7
Z: 1997 by John Chambers <jc:trillian.mit.edu>
B: Caledonian Country Dances, circa 1754
M: C
L: 1/16
%--------------------
K: A
|: E \
| "A"AAA2 A3c e3c A3c | "G"BBB2 =G3B "E7"d4 c3B \
| "A"AAA2 A3c e3c "E7"d3B | "A"c3e "E7"B3c "A"AAA2 A3 :|
|: d \
| "A"c3e e2fg a4 e3c | a3e c3A "Bm"BBB2 "E7"B3d \
| "A"c2A e3A a3e c3A | c3e "E7"B3c "A"AAA2 A3 :|
%%center Book05/05071-Scottish_Ramble-1.abc

%%sep 1 1 500
%%sep 1 1 500

